static/assets/img/icons/theme/general/size.svg

<svg height="24" viewBox="0 0 24 24" width="24" xmlns="http://www.w3.org/2000/svg"><g fill="none" fill-rule="evenodd"><path d="m0 0h24v24h-24z" opacity="0"/><g fill="#000"><path d="m18 6h-7c-.6666667-.11438192-1-.44771525-1-1s.3333333-.88561808 1-1h9v9c0 .6666667-.3333333 1-1 1s-1-.3333333-1-1zm-12 12h7c.6666667.1143819 1 .4477153 1 1s-.3333333.8856181-1 1h-9v-9c0-.6666667.33333333-1 1-1s1 .3333333 1 1z" fill-rule="nonzero"/><rect height="2" opacity=".3" rx="1" transform="matrix(.70710678 -.70710678 .70710678 .70710678 -4.970563 12)" width="10" x="7" y="11"/></g></g></svg>

<svg width="24px" height="24px" viewBox="0 0 24 24" version="1.1" xmlns="http://www.w3.org/2000/svg" xmlns:xlink="http://www.w3.org/1999/xlink">
    <title>Icon For Size</title>
    <g stroke="none" stroke-width="1" fill="none" fill-rule="evenodd">
        <polygon opacity="0" points="0 0 24 0 24 24 0 24"></polygon>
        <path d="M18,6 L11,6 C10.3333333,5.88561808 10,5.55228475 10,5 C10,4.44771525 10.3333333,4.11438192 11,4 L20,4 L20,13 C20,13.6666667 19.6666667,14 19,14 C18.3333333,14 18,13.6666667 18,13 L18,6 Z M6,18 L13,18 C13.6666667,18.1143819 14,18.4477153 14,19 C14,19.5522847 13.6666667,19.8856181 13,20 L4,20 L4,11 C4,10.3333333 4.33333333,10 5,10 C5.66666667,10 6,10.3333333 6,11 L6,18 Z" fill="#000000" fill-rule="nonzero"></path>
        <rect fill="#000000" opacity="0.3" transform="translate(12.000000, 12.000000) rotate(-45.000000) translate(-12.000000, -12.000000) " x="7" y="11" width="10" height="2" rx="1"></rect>
    </g>
</svg>
